src/assets/icons/edit-icon.svg

<svg fill="none" height="800" viewBox="0 0 24 24" width="800" xmlns="http://www.w3.org/2000/svg"><path d="m12 8.00012-8 7.99998v4h4l8-8m-4-3.99998 2.8686-2.86866.0018-.0017c.3948-.39488.5926-.59267.8206-.66675.2009-.06526.4172-.06526.6181 0 .2278.07403.4254.27159.8197.66591l1.7398 1.7398c.396.39602.5941.59412.6683.82245.0653.20084.0652.41718 0 .61803-.0741.22816-.2719.42596-.6674.82141l-.0009.00085-2.8686 2.86864m-4-3.99998 4 3.99998" stroke="#000" stroke-linecap="round" stroke-linejoin="round" stroke-width="2"/></svg>

<?xml version="1.0" encoding="utf-8"?>
<!-- Uploaded to: SVG Repo, www.svgrepo.com, Generator: SVG Repo Mixer Tools -->
<svg width="800px" height="800px" viewBox="0 0 24 24" fill="none" xmlns="http://www.w3.org/2000/svg">
<g id="Edit / Edit_Pencil_01">
<path id="Vector" d="M12 8.00012L4 16.0001V20.0001L8 20.0001L16 12.0001M12 8.00012L14.8686 5.13146L14.8704 5.12976C15.2652 4.73488 15.463 4.53709 15.691 4.46301C15.8919 4.39775 16.1082 4.39775 16.3091 4.46301C16.5369 4.53704 16.7345 4.7346 17.1288 5.12892L18.8686 6.86872C19.2646 7.26474 19.4627 7.46284 19.5369 7.69117C19.6022 7.89201 19.6021 8.10835 19.5369 8.3092C19.4628 8.53736 19.265 8.73516 18.8695 9.13061L18.8686 9.13146L16 12.0001M12 8.00012L16 12.0001" stroke="#000000" stroke-width="2" stroke-linecap="round" stroke-linejoin="round"/>
</g>
</svg>
